src/images/svg/binary-to-deriv/modern-icon.svg

<svg width="48" height="48" fill="none" xmlns="http://www.w3.org/2000/svg"><rect width="48" height="48" rx="8" fill="#3F9AA7"/><path fill-rule="evenodd" clip-rule="evenodd" d="M32 14H14c-1.1 0-2 .9-2 2v12c0 1.1.9 2 2 2h7v2h-1c-.55 0-1 .45-1 1s.45 1 1 1h6c.55 0 1-.45 1-1s-.45-1-1-1h-1v-2h1c.55 0 1-.45 1-1s-.45-1-1-1H15c-.55 0-1-.45-1-1V17c0-.55.45-1 1-1h16c.55 0 1 .45 1 1v3c0 .55.45 1 1 1s1-.45 1-1v-4c0-1.1-.9-2-2-2zm-2 9 5 .01c.55 0 1 .44 1 .99v9c0 .55-.45 1-1 1h-5c-.55 0-1-.45-1-1v-9c0-.55.45-1 1-1zm0 9h5v-7h-5v7zm-7-14 .97 3H27l-2.47 1.76.94 2.91-2.47-1.8-2.47 1.8.94-2.91L19 21h3.03l.97-3z" fill="#fff"/></svg>

<svg width="48" height="48" viewBox="0 0 48 48" fill="none" xmlns="http://www.w3.org/2000/svg">
<rect width="48" height="48" rx="8" fill="#3F9AA7"/>
<path fill-rule="evenodd" clip-rule="evenodd" d="M32 14H14C12.9 14 12 14.9 12 16V28C12 29.1 12.9 30 14 30H21V32H20C19.45 32 19 32.45 19 33C19 33.55 19.45 34 20 34H26C26.55 34 27 33.55 27 33C27 32.45 26.55 32 26 32H25V30H26C26.55 30 27 29.55 27 29C27 28.45 26.55 28 26 28H15C14.45 28 14 27.55 14 27V17C14 16.45 14.45 16 15 16H31C31.55 16 32 16.45 32 17V20C32 20.55 32.45 21 33 21C33.55 21 34 20.55 34 20V16C34 14.9 33.1 14 32 14ZM30 23L35 23.01C35.55 23.01 36 23.45 36 24V33C36 33.55 35.55 34 35 34H30C29.45 34 29 33.55 29 33V24C29 23.45 29.45 23 30 23ZM30 32H35V25H30V32ZM23 18L23.97 21H27L24.53 22.76L25.47 25.67L23 23.87L20.53 25.67L21.47 22.76L19 21H22.03L23 18Z" fill="white"/>
</svg>
